portal-web/docroot/html/themes/_unstyled/images/common/saved_in_database.svg

<svg xmlns="http://www.w3.org/2000/svg" viewBox="0 0 512 512" enable-background="new 0 0 512 512">
    <path id="database-icon" d="M422.122 355.606v46.524c0 33.066-74.375 59.87-166.122 59.87-91.747 0-166.122-26.804-166.122-59.87v-46.523c10.283 7.39 23.186 13.907 38.485 19.422 34.555 12.45 79.885 19.31 127.637 19.31 47.753 0 93.082-6.858 127.638-19.312 15.3-5.514 28.2-12.03 38.484-19.422zm-38.484-77.818C349.082 290.242 303.753 297.1 256 297.1c-47.752 0-93.082-6.858-127.638-19.312-15.3-5.514-28.2-12.03-38.484-19.42v46.103c0 33.066 74.375 59.87 166.122 59.87 91.747 0 166.122-26.804 166.122-59.87v-46.103c-10.283 7.39-23.184 13.907-38.484 19.42zM256 50c-91.747 0-166.122 26.805-166.122 59.87 0 33.066 74.375 59.87 166.122 59.87 91.747 0 166.122-26.804 166.122-59.87C422.122 76.805 347.747 50 256 50zm127.638 130.428C349.082 192.88 303.753 199.74 256 199.74c-47.752 0-93.082-6.86-127.638-19.312-15.3-5.514-28.2-12.03-38.484-19.422v46.225c0 33.066 74.375 59.87 166.122 59.87 91.747 0 166.122-26.804 166.122-59.87v-46.223c-10.283 7.39-23.184 13.907-38.484 19.42z"/>
</svg>

<?xml version="1.0" encoding="utf-8"?>
<!-- License Agreement at http://iconmonstr.com/license/ -->
<!DOCTYPE svg PUBLIC "-//W3C//DTD SVG 1.1//EN" "http://www.w3.org/Graphics/SVG/1.1/DTD/svg11.dtd">
<svg version="1.1" xmlns="http://www.w3.org/2000/svg" xlink="http://www.w3.org/1999/xlink" x="0px" y="0px" viewBox="0 0 512 512" enable-background="new 0 0 512 512" space="preserve"> <path id="database-icon" d="M422.122,355.606v46.524C422.122,435.196,347.747,462,256,462c-91.747,0-166.122-26.804-166.122-59.869
v-46.524c10.283,7.391,23.186,13.907,38.485,19.422C162.918,387.481,208.248,394.34,256,394.34
c47.753,0,93.082-6.858,127.638-19.312C398.938,369.514,411.839,362.997,422.122,355.606z M383.638,277.788
c-34.556,12.454-79.885,19.312-127.638,19.312c-47.752,0-93.082-6.858-127.638-19.312c-15.299-5.514-28.201-12.03-38.484-19.421
v46.104c0,33.065,74.375,59.869,166.122,59.869c91.747,0,166.122-26.804,166.122-59.869v-46.104
C411.839,265.758,398.938,272.274,383.638,277.788z M256,50c-91.747,0-166.122,26.805-166.122,59.87
c0,33.066,74.375,59.871,166.122,59.871c91.747,0,166.122-26.805,166.122-59.871C422.122,76.805,347.747,50,256,50z
M383.638,180.428C349.082,192.881,303.753,199.74,256,199.74c-47.752,0-93.082-6.859-127.638-19.312
c-15.299-5.514-28.201-12.031-38.484-19.422v46.225c0,33.065,74.375,59.87,166.122,59.87c91.747,0,166.122-26.805,166.122-59.87
v-46.224C411.839,168.397,398.938,174.914,383.638,180.428z"></path> </svg>
